X: 19963
T: Jim Boyce's
R: hornpipe
M: 4/4
K: Dmajor
DE|"D"F2FG AGFD|"D"A2AB A2dc|"G"BABd BAGF|"A"EDEF E2DE|
"D"F2FG AGFG|"D"AFAd f2ag|"Bm"fdBd "A"ABAG|"D"AF"A"GE "D"D2:|
de|"D"f2ef "F#m"a2fa|"Bm"bafe "F#m"f2de|"D"f2ef "F#m"a2fa|"G"bagf "A"e2de|
"D"f2ef "Bm"d3e|"D"fedc "G"B2FG|"D"AFAd "G"BcdB|"D"AF"A"GE "D"D2:|

